packages/ui-icons/svg/Solid/sis-not-synced.svg

<svg viewBox="0 0 1920 1920" version="1.1" xmlns="http://www.w3.org/2000/svg">
    <path d="M960,0 C1489.28,0 1920,430.613333 1920,960 C1920,1489.38667 1489.28,1920 960,1920 C430.72,1920 0,1489.38667 0,960 C0,720.96 88.64,494.08 244.48,320 L244.48,320 L53.3333333,320 L53.3333333,106.666667 L640,106.666667 L640,693.333333 L426.666667,693.333333 L426.666667,439.253333 C291.733333,577.386667 213.333333,762.986667 213.333333,960 C213.333333,1371.62667 548.266667,1706.66667 960,1706.66667 C1371.73333,1706.66667 1706.66667,1371.62667 1706.66667,960 C1706.66667,548.373333 1371.73333,213.333333 960,213.333333 L960,213.333333 Z M1151.25333,671.253333 L1302.08,822.08 L1110.82667,1013.33333 L1302.08,1204.58667 L1151.25333,1355.41333 L960,1164.16 L768.746667,1355.41333 L617.92,1204.58667 L809.173333,1013.33333 L617.92,822.08 L768.746667,671.253333 L960,862.506667 L1151.25333,671.253333 Z" stroke="none" stroke-width="1" fill-rule="evenodd"/>
</svg>

<svg viewBox="0 0 1920 1920" version="1.1" xmlns="http://www.w3.org/2000/svg">
    <path d="M1151.253 671.253L1302.08 822.08l-191.253 191.253 191.253 191.254-150.827 150.826L960 1164.16l-191.253 191.253-150.827-150.826 191.253-191.254L617.92 822.08l150.827-150.827L960 862.507l191.253-191.254zM960 0c529.28 0 960 430.613 960 960s-430.72 960-960 960S0 1489.387 0 960c0-239.04 88.64-465.92 244.48-640H53.333V106.667H640v586.666H426.667v-254.08C291.733 577.387 213.333 762.987 213.333 960c0 411.627 334.934 746.667 746.667 746.667s746.667-335.04 746.667-746.667S1371.733 213.333 960 213.333V0z" stroke="none" stroke-width="1" fill-rule="evenodd"/>
</svg>
